X:1
T:Montauban, 76.76 D
T:Montauban, 76.76 D
T:John Harrison Tenney, 1896
T:Public Domain Courtesy of the Cyber Hymnal™
C:John Harrison Tenney, 1896
Z:Public Domain
Z:Courtesy of the Cyber Hymnal™
%%score ( 1 2 ) ( 3 4 )
L:1/8
Q:1/4=105
M:4/4
K:G
V:1 treble 
V:2 treble 
V:3 bass 
V:4 bass 
V:1
 D2 | [DG]3 [GB] [FA]2 ([EG][FA]) | [GB][Gd]- [Gd]4 [Ge]2 | [Gd]3 [GB] [GB]2 (AG) | [FA]6 D2 | %5
 [DG]3 [GB] [FA]2 ([EG][FA]) | [GB][Gd]- [Gd]4 [Ge]2 | [Gd]3 [GB] [FA]2 (GA) | [DG]6 z2 | %9
 [FA]3 [FA] (AG) ([GB][FA]) | G[GB]- [GB]4 [Ge]2 | [Gd]3 [Fc] [GB]2 ([DA][EG]) | [FA]6 D2 | %13
 [DG]3 [GB] [FA]2 ([EG][FA]) | [GB][Gd]- [Gd]4 [Ge]2 | [Gd]3 [GB] [FA]2 (GA) | [DG]6 |] %17
V:2
 D2 | x8 | x8 | x6 G2 | x6 D2 | x8 | x8 | x6 D2 | x8 | x4 AG x2 | G x7 | x8 | x6 D2 | x8 | x8 | %15
 x6 D2 | x6 |] %17
V:3
 [G,B,]2 | [G,B,]3 [G,D] [D,D]2 [D,D]2 | [G,D][G,B,]- [G,B,]4 [G,C]2 | %3
 [G,B,]3 [G,D] [G,D]2 [E,^C]2 | [D,D]6 [F,C]2 | [G,B,]3 [G,D] [D,D]2 [D,D]2 | %6
 [G,D][G,B,]- [G,B,]4 [C,C]2 | [D,B,]3 [D,D] [D,C]2 (B,C) | [G,,B,]6 z2 | [D,C]3 [D,C] (CB,) (DC) | %10
 [G,B,][G,D]- [G,D]4 C2 | [B,D]3 [A,D] [G,D]2 ([F,D][E,^C]) | [D,D]6 [F,C]2 | %13
 [G,B,]3 [G,D] [D,D]2 [D,D]2 | [G,D][G,B,]- [G,B,]4 [C,C]2 | [D,B,]3 [D,D] [D,C]2 (B,C) | %16
 [G,,B,]6 |] %17
V:4
 x2 | x8 | x8 | x8 | x8 | x8 | x8 | x6 D,2 | x8 | x4 D,2 D,2 | x6 C2 | x8 | x8 | x8 | x8 | x6 D,2 | %16
 x6 |] %17

